X:37
T: Ideki egy csutak alatt
O: Bogdánfalva (Bákó), 1929
Q: "Andante" 1/4=132
L:1/4
K:F
d A B Hc | d A B c2 z |
d A B c2 | d B A HG2 H|
B A G A2 | B A G A2 |
B A G A2 | B A G HG2 |

